src/rounded/icons/fi-rr-password.svg

<svg id="Layer_1" height="512" viewBox="0 0 24 24" width="512" xmlns="http://www.w3.org/2000/svg" data-name="Layer 1"><path d="m15 17a1 1 0 0 1 -1 1h-4a1 1 0 0 1 0-2h4a1 1 0 0 1 1 1zm-.293-9.707a1 1 0 0 0 -1.414 0l-1.293 1.293-1.293-1.293a1 1 0 1 0 -1.414 1.414l1.293 1.293-1.293 1.293a1 1 0 1 0 1.414 1.414l1.293-1.293 1.293 1.293a1 1 0 0 0 1.414-1.414l-1.293-1.293 1.293-1.293a1 1 0 0 0 0-1.414zm7.293 8.707h-4a1 1 0 0 0 0 2h4a1 1 0 0 0 0-2zm-.586-6 1.293-1.293a1 1 0 1 0 -1.414-1.414l-1.293 1.293-1.293-1.293a1 1 0 1 0 -1.414 1.414l1.293 1.293-1.293 1.293a1 1 0 1 0 1.414 1.414l1.293-1.293 1.293 1.293a1 1 0 0 0 1.414-1.414zm-15.414 6h-4a1 1 0 0 0 0 2h4a1 1 0 0 0 0-2zm.707-8.707a1 1 0 0 0 -1.414 0l-1.293 1.293-1.293-1.293a1 1 0 1 0 -1.414 1.414l1.293 1.293-1.293 1.293a1 1 0 1 0 1.414 1.414l1.293-1.293 1.293 1.293a1 1 0 1 0 1.414-1.414l-1.293-1.293 1.293-1.293a1 1 0 0 0 0-1.414z"/></svg>

<svg id="Layer_1" data-name="Layer 1" xmlns="http://www.w3.org/2000/svg" viewBox="0 0 24 24"><path d="M15,17a1,1,0,0,1-1,1H10a1,1,0,0,1,0-2h4A1,1,0,0,1,15,17Zm-.293-9.707a1,1,0,0,0-1.414,0L12,8.586,10.707,7.293A1,1,0,1,0,9.293,8.707L10.586,10,9.293,11.293a1,1,0,1,0,1.414,1.414L12,11.414l1.293,1.293a1,1,0,0,0,1.414-1.414L13.414,10l1.293-1.293A1,1,0,0,0,14.707,7.293ZM22,16H18a1,1,0,0,0,0,2h4a1,1,0,0,0,0-2Zm-.586-6,1.293-1.293a1,1,0,1,0-1.414-1.414L20,8.586,18.707,7.293a1,1,0,1,0-1.414,1.414L18.586,10l-1.293,1.293a1,1,0,1,0,1.414,1.414L20,11.414l1.293,1.293a1,1,0,0,0,1.414-1.414ZM6,16H2a1,1,0,0,0,0,2H6a1,1,0,0,0,0-2Zm.707-8.707a1,1,0,0,0-1.414,0L4,8.586,2.707,7.293A1,1,0,1,0,1.293,8.707L2.586,10,1.293,11.293a1,1,0,1,0,1.414,1.414L4,11.414l1.293,1.293a1,1,0,1,0,1.414-1.414L5.414,10,6.707,8.707A1,1,0,0,0,6.707,7.293Z"/></svg>
